app/images/icons/cart.svg

<svg width="23" height="23" viewBox="0 0 23 23" fill="none" xmlns="http://www.w3.org/2000/svg">
<path d="M8.03884 13.4312H8.03972C8.04046 13.4312 8.04119 13.431 8.04193 13.431H18.2878C18.5401 13.431 18.7619 13.261 18.8312 13.0147L21.0917 4.9774C21.1404 4.80412 21.1062 4.61784 20.9995 4.47402C20.8927 4.3302 20.7257 4.24558 20.5483 4.24558H6.73553L6.33155 2.39877C6.27401 2.1361 6.04473 1.94922 5.77982 1.94922H2.3891C2.07695 1.94922 1.82397 2.20621 1.82397 2.52331C1.82397 2.8404 2.07695 3.0974 2.3891 3.0974H5.32655C5.39807 3.42466 7.25974 11.9353 7.36687 12.4249C6.76629 12.6901 6.34495 13.2984 6.34495 14.0051C6.34495 14.9548 7.10551 15.7274 8.04031 15.7274H18.2878C18.6 15.7274 18.853 15.4704 18.853 15.1533C18.853 14.8362 18.6 14.5792 18.2878 14.5792H8.04031C7.72876 14.5792 7.47519 14.3216 7.47519 14.0051C7.47519 13.6891 7.72787 13.4319 8.03884 13.4312ZM19.7991 5.39376L17.8615 12.2828H8.49359L6.98659 5.39376H19.7991Z" fill="#2A364E"/>
<path d="M7.33545 17.5637C7.33545 18.5766 8.15959 19.4007 9.17254 19.4007C10.1855 19.4007 11.0096 18.5766 11.0096 17.5637C11.0096 16.5507 10.1855 15.7266 9.17254 15.7266C8.15959 15.7266 7.33545 16.5507 7.33545 17.5637ZM9.17254 16.9513C9.51014 16.9513 9.7849 17.2261 9.7849 17.5637C9.7849 17.9013 9.51014 18.176 9.17254 18.176C8.83494 18.176 8.56018 17.9013 8.56018 17.5637C8.56018 17.2261 8.83494 16.9513 9.17254 16.9513Z" fill="#2A364E"/>
<path d="M15.6023 17.5637C15.6023 18.5766 16.4264 19.4007 17.4394 19.4007C18.4523 19.4007 19.2765 18.5766 19.2765 17.5637C19.2765 16.5507 18.4523 15.7266 17.4394 15.7266C16.4264 15.7266 15.6023 16.5507 15.6023 17.5637ZM17.4394 16.9513C17.777 16.9513 18.0517 17.2261 18.0517 17.5637C18.0517 17.9013 17.777 18.176 17.4394 18.176C17.1018 18.176 16.827 17.9013 16.827 17.5637C16.827 17.2261 17.1018 16.9513 17.4394 16.9513Z" fill="#2A364E"/>
</svg>

<svg width="23" height="23" fill="none" xmlns="http://www.w3.org/2000/svg"><path d="M8.039 13.431h10.249c.252 0 .474-.17.543-.416l2.26-8.038A.582.582 0 0 0 21 4.474a.562.562 0 0 0-.452-.228H6.736l-.404-1.847a.567.567 0 0 0-.552-.45H2.39a.57.57 0 0 0-.566.574.57.57 0 0 0 .565.574h2.938l2.04 9.328c-.6.265-1.022.873-1.022 1.58 0 .95.76 1.722 1.695 1.722h10.248a.57.57 0 0 0 .565-.574.57.57 0 0 0-.565-.574H8.04a.57.57 0 0 1-.565-.574.57.57 0 0 1 .564-.574Zm11.76-8.037-1.938 6.889H8.494l-1.507-6.89h12.812Z" fill="#2A364E"/><path d="M7.335 17.564A1.84 1.84 0 0 0 9.173 19.4a1.84 1.84 0 0 0 1.837-1.837 1.84 1.84 0 0 0-1.837-1.837 1.84 1.84 0 0 0-1.838 1.837Zm1.838-.613a.613.613 0 1 1-.002 1.227.613.613 0 0 1 .002-1.227ZM15.602 17.564A1.84 1.84 0 0 0 17.44 19.4a1.84 1.84 0 0 0 1.837-1.837 1.84 1.84 0 0 0-1.837-1.837 1.84 1.84 0 0 0-1.837 1.837Zm1.837-.613a.613.613 0 1 1-.001 1.227.613.613 0 0 1 .001-1.227Z" fill="#2A364E"/></svg>
